outputs/icons/hardware/device_settings_round.svg

<svg xmlns="http://www.w3.org/2000/svg" width="1200" height="1200" fill="none"><g clip-path="url(#a)"><path fill="#000" d="M349.999 150v100c0 27.5 22.5 50 50 50 27.499 0 49.999-22.5 49.999-50v-50H950v800H449.998v-50c0-27.5-22.5-50-49.999-50s-50 22.5-50 50v100c0 55 44.999 100 99.999 100H950c55 0 100-45 100-100V150c0-55-45-100-100-100H449.998c-55 0-99.999 45-99.999 100m124.999 625c14.501-6 27.502-14.5 40.002-24l-1 1.5 50.5 19.5c11.5 4.5 24.5 0 30.5-11l42-73c6-10.5 3.5-24.5-6-32l-42.5-34-1 1.5c1-8 2.5-16 2.5-24s-1.5-16-2.5-24l1 1.5 42.5-34c9.5-7.5 12-21.5 6-32l-42-73c-6-10.5-19-15.5-30.5-11L514 446.5l1 1.5c-12.5-8.5-25.501-17-40.002-23l-8.5-54c-1.5-12-12-21-24.5-21h-83.999c-12.5 0-23 9-24.5 21l-8.5 54c-14.5 6-27.5 14.5-40 24l.999-1.5-50.999-19.5c-11.5-4.5-24.5 0-30.5 11l-42.001 73c-5.999 10.5-3.499 24.5 6.001 32l42.5 34 .999-1.5c-.999 7.5-2.5 15.5-2.5 23.5s1.501 16 2.5 24l-.999-1.5-42.5 34c-9.5 7.5-12 21.5-6.001 32l42.001 73c6 10.5 19 15.5 30.5 11l50.5-19.5-.5-2c12.5 9.5 25.5 18 40 24l8.5 53.5c1.5 12.5 12 21.5 24.5 21.5h83.999c12.5 0 23-9 24.5-21zM299.999 600c0-55 44.999-100 100-100s99.999 45 99.999 100-44.999 100-99.999 100c-55.001 0-100-45-100-100"/></g><defs><clipPath id="a"><path fill="#fff" d="M0 0h1200v1200H0z"/></clipPath></defs></svg>

<svg width="1200" height="1200" viewBox="0 0 1200 1200" fill="none" xmlns="http://www.w3.org/2000/svg"><g clip-path="url(#clip0_648_1679)"><path d="M349.999 150V250C349.999 277.5 372.499 300 399.999 300C427.498 300 449.998 277.5 449.998 250V200H950V1000H449.998V950C449.998 922.5 427.498 900 399.999 900C372.499 900 349.999 922.5 349.999 950V1050C349.999 1105 394.998 1150 449.998 1150H950C1005 1150 1050 1105 1050 1050V150C1050 95 1005 50 950 50H449.998C394.998 50 349.999 95 349.999 150ZM474.998 775C489.499 769 502.5 760.5 515 751L514 752.5L564.5 772C576 776.5 589 772 595 761L637 688C643 677.5 640.5 663.5 631 656L588.5 622L587.5 623.5C588.5 615.5 590 607.5 590 599.5C590 591.5 588.5 583.5 587.5 575.5L588.5 577L631 543C640.5 535.5 643 521.5 637 511L595 438C589 427.5 576 422.5 564.5 427L514 446.5L515 448C502.5 439.5 489.499 431 474.998 425L466.498 371C464.998 359 454.498 350 441.998 350H357.999C345.499 350 334.999 359 333.499 371L324.999 425C310.499 431 297.499 439.5 284.999 449L285.998 447.5L234.999 428C223.499 423.5 210.499 428 204.499 439L162.498 512C156.499 522.5 158.999 536.5 168.499 544L210.999 578L211.998 576.5C210.999 584 209.498 592 209.498 600C209.498 608 210.999 616 211.998 624L210.999 622.5L168.499 656.5C158.999 664 156.499 678 162.498 688.5L204.499 761.5C210.499 772 223.499 777 234.999 772.5L285.499 753L284.999 751C297.499 760.5 310.499 769 324.999 775L333.499 828.5C334.999 841 345.499 850 357.999 850H441.998C454.498 850 464.998 841 466.498 829L474.998 775ZM299.999 600C299.999 545 344.998 500 399.999 500C454.999 500 499.998 545 499.998 600C499.998 655 454.999 700 399.999 700C344.998 700 299.999 655 299.999 600Z" fill="#1D1E23"/></g><defs><clipPath id="clip0_648_1679"><path width="24" fill="white" d="M0 0H1200V1200H0V0z"/></clipPath></defs></svg>
